X:2449
T:Polska från Blekinge
T:Svenska Folkdansar H1 nr 32
O:Blekinge
B:Traditioner av Svenska Folkdansar Häfte 1, nr 32
B:Jämför [[http://www.smus.se/earkiv/fmk/browselarge.php?lang=en&katalogid=M+36&bildnr=00013|SMUS - katalog M36 bild 13]] nr 44 ur [[Notböcker/220 Svenska Folkdanser]]
B:Jämför [[http://www.smus.se/earkiv/fmk/browselarge.php?lang=sw&katalogid=M+113a&bildnr=00005|SMUS - katalog M113a bild 5]] (andra t.v.)
N:Se även [[Musik/181|+]]
R:Polska
Z:Nils L
U:V=wedge
M:3/4
L:1/16
K:Am
Ve2eB Vc2cA VB2B^G | E2E^G AGAB cBcd | e2eB c2cA B2B^G | E2E^G A8 ::
(c2>d2) e4 g4 | e2e2 Te2de d4 | B2Bc d2dB d2dB | cBcd edcB c4 !D.C.! ||
(:musicend:)
(:music:)
